X: 24
T: Praeludia organi op. 5 – Adagio
C: Franciszek Walczyński
%%abc-version 2.0
%%abcx-abcm2ps-target-version 5.9.1 (29 Sep 2008)
%%abc-creator hum2abc beta
%%abcx-conversion-date 2021/10/04 07:38:41
%%abc-edited-by Andrzej Borzym
%%abc-edited-by Katarzyna Serwa
%%abcx-initial-encoding-date 2021-07-26
%%humdrum-veritas 2186675606
%%humdrum-veritas-data 2910373861
%%linebreak <none>
%%barnumbers 0
L: 1/8
M: 2/4
N: Derived from pl-kozmzk--mzk-m-159--013_walczynski-franciszek--praeludia-organi-op-5-adagio.krn
Q: "13. Adagio."
%%staves {1 2}
V: 1 clef=treble
V: 2 clef=bass
K: F#
[V:1] F2G2 & CDFE | 
[V:2] A,2DC & F,D,B,,C, | 
[V:1] A4 & F4- | 
[V:2] CC,F,A, & F,,4 | 
[V:1] c2B2 & FEF2- | 
[V:2] C2D2 & A,,2B,,^B,, | 
[V:1] A2G2 & F2E2 | 
[V:2] C^B,C2 & C,4 | 
[V:1] BAGF & D2ED | 
[V:2] B,3^B, & G,3^^G, | 
[V:1] F2E^^F & D2-DC | 
[V:2] A,A,,A,D, & A,A,,2D, | 
[V:1] G2FE & D2CB, | 
[V:2] D,B,A,G, & B,,2C,2 | 
[V:1] G2!fermata!F2 & E2C2 | 
[V:2] B,C!fermata!A,2 & !fermata!F,4 | 
[V:1] !accent!A3G & ^^CD^^DE- | 
[V:2] A,4- & A,,B,,^B,,^^C, | 
[V:1] G2F2 & E^^CD2 | 
[V:2] A,3A, & D,4 | 
[V:1] !accent!G3F & DC^B,D | 
[V:2] G,4- & ^B,,A,,G,,2 | 
[V:1] F2E2 & D2C2- | 
[V:2] G,4 & C,^B,,C,=B,, | 
[V:1] F3E & C^B,C^^C | 
[V:2] F,2A,G, & A,,4 | 
[V:1] DBAG & D4 | 
[V:2] F,G,^^F,G, & B,,G,,A,,B,, | 
[V:1] F2E2 & C4- | 
[V:2] A,=A,G,B,- & C,4 | 
[V:1] !fermata!F4 & C4 |]  
[V:2] B,^A,/G,/!fermata!A,2 & !fermata!F,,4 |]  


